X:19
T:Adios, conceyu d'Ayer (CT 207)
C:Tradicional
S:Msica Tradicional Asturiana, (C) Tello & Tito. Asturies, 2001.
S:http://pagina.de/MusTradAst <telloytito@asturies.org>
N:Entonaban esta cancin los mozos del concejo de Quirs cuando regresaban a sus casas, una vez terminada la temporada de trabajo en la cuenca minera de Ayer.
N:De octubre a marzo apenas se ejecutan en Quirs labores de campo, debido a lo crudo del otozo e invierno, durante los cuales la nieve es casi permanente en este concejo, y por tal causa los hombres emigraban en dicha poca en busca de jornal con que sostener a sus familias, mientras las mujeres se quedaban en el hogar, ocupndose en hilar y tejer lana con que confeccionan vestidos para s y sus familiares.
N:Ha desaparecido ya esta costumbre de emigracin, debido al hallazgo y explotacin de minas carbonferas dentro del concejo de Quirs.
A:Asturies
O:Quirs
Z:Cancioneru de Torner 207
M:3/8
L:1/8
Q:1/4=63
K:G
z/B/ B/c/
|(d/>c/)Bd-|d(c3/4d/8c/8 B/4c/8B/8(5A/8B/8A/8G/8F/8|G3-)|G z/B/ B/c/|
 (d/>c/)Bd-|d(c3/4d/8c/8 B/4c/8B/8(5A/8B/8A/8G/8F/8|G2) A|
ccB|A c2-|c(B3/4c/8B/8 A/B/8A/8G/8F/8|G/)G/-G2-|G z/B/ B/c/|
(d/>c/)Bd-|d(c3/4d/8c/8 B/4c/8B/8(5A/8B/8A/8G/8F/8|G/)G/-G2|G) z/B/ B/c/|
(d/>c/)Bd-|d(c3/4d/8c/8 B/4c/8B/8(5A/8B/8A/8G/8F/8|G/) G/-GA|
ccB|A c2-|c (B3/4c/8B/8 A/B/8A/8G/8F/8|G/)G/-G2-|G||
W:Adios, concejo de Ayer, (bis)
W:adios, nobles ayeranos, (bis)
W:tenis criar los fos
W:de los mozos quirosanos.
W:
